X:1010
T:Rory O' More
D:Jimmy Shand 78: Beltona BL 2229
Z:Nigel Gatherer
M:6/8
L:1/8
K:A
f|eAA cBA|eAA A2 f|edc cBA|GBB B2 f|eAA cBA|
ede fed|cee efg|aAA A2::e|agf edc|dcB A2 G|
F2 G A2 B|cee efg|agf edc|dcB A2 G|F2 G A2 B|cee e2:|
